src/assets/Cryptologos/ada.svg

<?xml version="1.0" encoding="utf-8"?>
<svg xmlns="http://www.w3.org/2000/svg" fill="none" height="26" viewBox="0 0 26 26" width="26">
<path d="M25.9295 13.0002C25.9295 20.1421 20.14 25.9318 12.9982 25.9318C5.85625 25.9318 0.0666504 20.1421 0.0666504 13.0002C0.0666504 5.8584 5.85625 0.0688095 12.9982 0.0688095C20.1399 0.0688095 25.9295 5.8584 25.9295 13.0002Z" fill="#3CC8C8" opacity="0.2"/>
<path clip-rule="evenodd" d="M13.8683 6.59863C14.042 6.2687 13.6429 5.86923 13.316 6.04143C13.05 6.14847 12.9825 6.53734 13.1895 6.73408C13.3849 6.93908 13.7674 6.86757 13.8683 6.59863ZM10.2294 6.74416C10.2496 6.52552 9.9982 6.34173 9.7996 6.42431C9.52315 6.4987 9.49247 6.93847 9.76068 7.0434C9.9631 7.1562 10.2504 6.98151 10.2294 6.74416ZM17.0016 7.05007C16.6912 7.01219 16.6421 6.51931 16.9409 6.42007C17.1726 6.3059 17.3853 6.51999 17.4192 6.74188C17.3706 6.93135 17.2135 7.10484 17.0016 7.05007ZM11.3544 8.42939C11.4055 8.03984 10.9317 7.72393 10.5997 7.93605C10.2888 8.09666 10.246 8.57582 10.5282 8.78469C10.82 9.0506 11.3372 8.82272 11.3544 8.42939ZM15.6683 8.16113C15.8164 7.77552 16.4166 7.76385 16.5852 8.13923C16.7519 8.43135 16.5469 8.7931 16.25 8.89242C15.8567 8.96658 15.4831 8.53711 15.6683 8.16113ZM13.5 8.26954C13.1882 8.29211 12.8893 8.53908 12.8925 8.87052C12.8748 9.14135 13.0663 9.36257 13.2938 9.47537C13.3167 9.47676 13.3399 9.47862 13.3632 9.48049C13.4917 9.4908 13.6252 9.5015 13.7408 9.43605C14.0396 9.30257 14.1864 8.90211 14.0211 8.61128C13.9323 8.40045 13.7069 8.31143 13.5 8.26954ZM7.66314 9.35348C7.96645 9.16514 8.37565 9.50886 8.26082 9.84166C8.1976 10.1295 7.81449 10.2467 7.59549 10.0629C7.36172 9.89067 7.39877 9.47666 7.66314 9.35348ZM19.5439 9.71075C19.5745 9.38257 19.1499 9.15105 18.8926 9.35287C18.6285 9.51666 18.6572 9.95386 18.9385 10.0816C19.194 10.2357 19.5611 10.01 19.5439 9.71075ZM14.3631 9.9487C14.7878 9.79461 15.2922 9.97901 15.5342 10.3614C15.8535 10.8289 15.6836 11.5409 15.1881 11.8092C14.6748 12.1264 13.9251 11.8575 13.7355 11.2784C13.5203 10.76 13.8339 10.1112 14.3631 9.9487ZM13.203 10.4498C12.9756 9.96355 12.3423 9.7753 11.8716 9.99969C11.37 10.226 11.1393 10.8935 11.3991 11.3849C11.6309 11.8931 12.3065 12.1014 12.7854 11.8267C13.2636 11.5823 13.4705 10.9232 13.203 10.4498ZM9.3769 10.8612C9.41268 10.5549 9.69873 10.3556 9.98733 10.335C10.2983 10.3729 10.5467 10.6168 10.5805 10.9347C10.5601 11.2494 10.3194 11.557 9.9892 11.5551C9.62598 11.5867 9.30753 11.2217 9.3769 10.8612ZM17.6196 10.9342C17.6362 10.5015 17.1184 10.1823 16.7455 10.4016C16.3452 10.5923 16.3151 11.2229 16.7008 11.4469C17.0721 11.7158 17.6452 11.3927 17.6196 10.9342ZM10.8577 12.0175C11.2938 11.8963 11.7925 12.1039 12.0064 12.5089C12.2407 12.9164 12.1449 13.4826 11.781 13.7816C11.3143 14.2201 10.4535 14.044 10.2051 13.4456C9.91968 12.897 10.2664 12.1619 10.8577 12.0175ZM16.7334 12.4479C16.5054 12.0578 16.0074 11.8927 15.5834 12.0152C14.9877 12.18 14.6722 12.9435 14.9857 13.4837C15.2443 14.006 15.9723 14.1814 16.4422 13.8473C16.8909 13.5597 17.0347 12.8942 16.7334 12.4479ZM8.05262 12.5243C8.42935 12.3804 8.84695 12.8003 8.69432 13.1776C8.6011 13.5213 8.12155 13.6483 7.87382 13.3949C7.58394 13.157 7.69127 12.6275 8.05262 12.5243ZM18.8015 12.4598C18.4814 12.4773 18.253 12.7565 18.2639 13.0718C18.3265 13.2189 18.4024 13.3723 18.5506 13.4484C18.8666 13.6245 19.3136 13.3698 19.29 12.9951C19.3104 12.7114 19.0595 12.5011 18.8015 12.4598ZM6.20027 12.7094C6.42692 12.6095 6.70727 12.8079 6.65552 13.0621C6.64337 13.35 6.22262 13.4607 6.06804 13.2201C5.93146 13.0531 6.01321 12.7955 6.20027 12.7094ZM20.9699 12.8597C20.9067 12.6714 20.6506 12.5889 20.491 12.7036C20.2255 12.8467 20.3296 13.342 20.6513 13.3124C20.8805 13.3472 21.0772 13.0654 20.9699 12.8597ZM12.0888 14.0855C12.6852 13.9289 13.3263 14.4312 13.33 15.0515C13.3689 15.6783 12.7375 16.2342 12.127 16.0894C11.6551 16.0126 11.2848 15.5535 11.3001 15.0718C11.2989 14.6111 11.643 14.183 12.0888 14.0855ZM15.7066 15.0593C15.7162 14.4247 15.056 13.9133 14.4507 14.0842C14.0918 14.1743 13.7879 14.4731 13.7086 14.8405C13.5516 15.3919 13.9666 16.0161 14.5291 16.0896C15.1269 16.2117 15.7386 15.6745 15.7066 15.0593ZM9.89673 14.4661C10.3156 14.3939 10.7083 14.8659 10.5384 15.2676C10.4145 15.6958 9.79773 15.8119 9.52503 15.4622C9.20515 15.1264 9.44395 14.5124 9.89673 14.4661ZM17.6266 15.0627C17.6554 14.6533 17.1969 14.3269 16.8234 14.4849C16.3719 14.6298 16.2966 15.325 16.7103 15.5612C17.0756 15.8243 17.6416 15.5135 17.6266 15.0627ZM18.7594 16.4464C18.6132 16.1711 18.8788 15.8061 19.1815 15.857C19.3239 15.8546 19.4258 15.9615 19.5179 16.0581L19.534 16.075L19.5375 16.1029C19.5571 16.2599 19.5795 16.44 19.453 16.5586C19.2709 16.7914 18.8584 16.725 18.7594 16.4464ZM8.28827 16.3613C8.35187 16.0272 7.94477 15.7435 7.66187 15.9337C7.39239 16.0724 7.38279 16.5058 7.64327 16.658C7.88597 16.8256 8.25445 16.6567 8.28827 16.3613ZM13.2509 16.5522C13.6212 16.3871 14.0931 16.7128 14.058 17.1248C14.0854 17.5802 13.5018 17.8955 13.1397 17.622C12.7375 17.3873 12.8046 16.6966 13.2509 16.5522ZM11.3723 17.6407C11.401 17.2841 10.9777 16.9945 10.6623 17.1622C10.44 17.2461 10.3494 17.4937 10.3455 17.7161C10.4215 17.9201 10.576 18.1346 10.8129 18.1398C11.099 18.183 11.3819 17.9335 11.3723 17.6407ZM15.9058 17.1673C16.2302 16.9648 16.6912 17.2557 16.6605 17.637C16.6689 18.0356 16.1478 18.2909 15.8458 18.0291C15.5534 17.8239 15.5891 17.3305 15.9058 17.1673ZM17.0775 18.9079C16.8432 18.9582 16.6734 19.2239 16.8177 19.4444C16.9658 19.7005 17.3981 19.6089 17.4256 19.3103C17.4651 19.0897 17.266 18.9466 17.0775 18.9079ZM9.57933 19.2529C9.63678 19.0781 9.77598 18.9044 9.97968 18.9498C10.2766 18.9711 10.3647 19.4232 10.1049 19.5625C9.87115 19.7217 9.60003 19.5037 9.57933 19.2529ZM13.678 19.2064C13.4596 19.0691 13.1283 19.1948 13.0714 19.4534C12.9675 19.7146 13.217 20.0304 13.4935 19.9977C13.6423 20.0015 13.7572 19.8945 13.8466 19.7874C13.864 19.7152 13.8817 19.643 13.9015 19.5708L13.9003 19.5662C13.8635 19.4285 13.8207 19.2683 13.678 19.2064Z" fill="#3CC8C8" fill-rule="evenodd"/>
</svg>

<svg xmlns="http://www.w3.org/2000/svg" fill="#3cc8c8" height="26" width="26" xmlns:v="https://vecta.io/nano"><path d="M25.93 13c0 7.142-5.789 12.932-12.931 12.932S.067 20.142.067 13 5.856.069 12.998.069 25.93 5.858 25.93 13z" opacity=".2"/><path d="M13.868 6.599c.174-.33-.225-.729-.552-.557-.266.107-.334.496-.127.693.195.205.578.133.679-.135zm-3.639.146a.33.33 0 0 0-.43-.32c-.276.074-.307.514-.039.619.202.113.49-.062.469-.299zm6.772.306c-.31-.038-.36-.531-.061-.63.232-.114.444.1.478.322-.049.189-.206.363-.418.308zm-5.647 1.379c.051-.39-.423-.705-.755-.493a.52.52 0 0 0-.072.849c.292.266.809.038.826-.355zm4.314-.268c.148-.386.748-.397.917-.022.167.292-.038.654-.335.753-.393.074-.767-.355-.582-.731zM13.5 8.27c-.312.023-.611.27-.607.601-.018.271.174.492.401.605l.069.005c.128.01.262.021.378-.044a.61.61 0 0 0 .28-.825c-.089-.211-.314-.3-.521-.342zM7.663 9.353c.303-.188.713.155.598.488-.063.288-.446.405-.665.221-.234-.172-.197-.586.068-.709zm11.881.357c.031-.328-.394-.56-.651-.358a.43.43 0 0 0 .046.729.42.42 0 0 0 .605-.371zm-5.181.238c.425-.154.929.03 1.171.413a1.04 1.04 0 0 1-.346 1.448 1.02 1.02 0 0 1-1.453-.531 1.03 1.03 0 0 1 .628-1.33zm-1.16.501c-.227-.486-.861-.675-1.331-.45a1.04 1.04 0 0 0-.473 1.385c.232.508.907.716 1.386.442.478-.244.685-.904.418-1.377zm-3.826.411c.036-.306.322-.506.61-.526.311.038.559.282.593.6-.02.315-.261.622-.591.62a.6.6 0 0 1-.612-.694zm8.243.073c.017-.433-.501-.752-.874-.533-.4.191-.43.821-.045 1.045.371.269.944-.054.919-.513zm-6.762 1.083a1.02 1.02 0 0 1 1.149.491c.234.407.139.974-.225 1.273a1.02 1.02 0 0 1-1.576-.336c-.285-.549.061-1.284.653-1.428zm5.876.43c-.228-.39-.726-.555-1.15-.433a1.04 1.04 0 0 0-.598 1.469 1.02 1.02 0 0 0 1.457.364c.449-.288.593-.953.291-1.399zm-8.681.076a.52.52 0 0 1 .642.653.51.51 0 0 1-.82.217c-.29-.238-.183-.767.179-.871zm10.749-.065c-.32.018-.549.297-.538.612.063.147.139.3.287.377.316.176.763-.079.739-.453.02-.284-.23-.494-.488-.535zm-12.601.25c.227-.1.507.098.455.353-.012.288-.433.399-.587.158-.137-.167-.055-.425.132-.511zm14.77.15c-.063-.188-.319-.271-.479-.156-.265.143-.161.638.16.609.229.035.426-.247.319-.453zm-8.881 1.226c.596-.157 1.237.346 1.241.966.039.627-.592 1.183-1.203 1.038-.472-.077-.842-.536-.827-1.018-.001-.461.343-.889.789-.986zm3.618.974c.01-.635-.651-1.146-1.256-.975-.359.09-.663.389-.742.756-.157.551.258 1.176.82 1.249.598.122 1.21-.415 1.178-1.03zm-5.81-.593c.419-.072.812.4.642.801a.6.6 0 0 1-1.013.195c-.32-.336-.081-.95.372-.996zm7.73.597c.029-.409-.43-.736-.803-.578-.451.145-.527.84-.113 1.076.365.263.931-.048.916-.498zm1.133 1.384c-.146-.275.119-.64.422-.589.142-.002.244.104.336.201l.016.017.004.028c.02.157.042.337-.085.456-.182.233-.595.166-.694-.112zm-10.471-.085c.064-.334-.344-.618-.626-.428-.269.139-.279.572-.019.724a.43.43 0 0 0 .645-.297zm4.963.191a.6.6 0 0 1 .807.573c.027.455-.556.771-.918.497-.402-.235-.335-.925.111-1.07zm-1.879 1.088c.029-.357-.395-.646-.71-.479-.222.084-.313.332-.317.554.076.204.231.418.467.424.286.043.569-.206.559-.499zm4.534-.473c.324-.203.785.088.755.47.008.399-.513.654-.815.392-.292-.205-.257-.699.06-.862zm1.172 1.741c-.234.05-.404.316-.26.537.148.256.58.164.608-.134.04-.221-.16-.364-.348-.402zm-7.498.345c.057-.175.197-.349.4-.303.297.021.385.473.125.613-.234.159-.505-.059-.526-.31zm4.099-.047c-.218-.137-.55-.012-.607.247-.104.261.146.577.422.544.149.004.264-.103.353-.21l.055-.217-.001-.005c-.037-.138-.08-.298-.222-.36z" fill-rule="evenodd"/></svg>
